X: 37975
T: Sparkling Seas
R: reel
M: 4/4
K: Dmajor
[M:2/4] [L: 1/8]
A|d2 dd|c>B AA|Bc dd|cB AA|
d2 fd|gf ed|c2 Bc|d3:|A|df af|g>f ed|
c2 AA|d2 AA|B2 GG|AG FE|D3||

